X: 371
T: A Stor Mo Chroi
R: waltz
M: 3/4
K: Eminor
(c3/2d/)|e3/2e/ e2d<e|(d>c) AG/E/ G2-|
G4A3/2c/|d3/2e/ (d>c A>G)|(E3/2D/) (E<G) A2|
[1A4:|2 A4-A A]|AG/A/ cd/e/ g3/2a/|
A3A AG/A/|cd/e/ (a4|a)g/e/ (g3 ^g)|
a2=f3g|a^de3 d/e/|d>c AG/E/ G2-|
G2ed cA/G/|E3D EG|(A2A4)||

